X: 123
T: the Mill-Wheel
%R: air, march
B: "The Everyday Song Book", 1927
F: http://www.library.pitt.edu/happybirthday/pdf/The_Everyday_Song_Book.pdf
Z: 2017 John Chambers <jc:trillian.mit.edu>
M: 4/8
L: 1/8
K: D
% - - - - - - - - - - - - - - - - - - - - - - - - - - - - -
[| D E F G | A G F E | D2 D2 | D4 | D E F G |
w: Round and round the mill-wheel's go-ing, Click, click, clack! Clear and bright the
%
A G F E | D2 D2 | D4 | E E E E | F4 |
w: wa-ter's flow-ing, Click, click clack! If the wa-ter flows,
%
G G G G | A4 | B c d c | B A G F | E2 E2 | D4 |]
w: if the mill-wheel goes, You for bread, my dear, will nev-er, nev-er lack.
% - - - - - - - - - - - - - - - - - - - - - - - - - - - - -
